X:1
T:Title
%%score { 1 | 2 }
L:1/8
M:6/8
K:D
V:1 treble nm="Grand Piano"
V:2 bass 
V:1
 z3 z2[Q:1/4=84] [FA] | [FA][=F^G][^FA] [=GB][Ac][Bd] | [FA][FB][FA] [DF]3 | [FA][CE][DF] [EG]3 | %4
 BcB [FA]2 [FA] | [FA][=F^G][^FA] [=GB][Ac][Bd] | [FA][FB][FA] [DF]3 | %7
 [CA][CE][B,DF] [A,EG][A,DF][K:bass][G,CE] | [F,D]6 | [FA][FB][Fd] c3 | BGB [FA]2 [FA] | %11
 [CA][CE][DF] [EG][FA][GB] | [GB][FA][EG] F3 | FGA B3 | edB [FA]2 [FA] | %15
 [FB][Fc][Fd] [A,DF][A,CG][K:bass][G,CE] |[M:5/8] [F,D]-[F,D]- [F,D]3 |] %17
V:2
 z3 z2 [D,D] | [D,D][D,D][D,D] [G,D][G,D][G,D] | [D,D][D,D][D,D] [D,A,]3 | %3
 [A,,A,][A,,A,][A,,A,] [A,,A,]3 | [A,CG][A,EG][A,CG][K:bass] [D,D]2 [D,D] | %5
 [D,D][D,D][D,D] [G,D][G,D][G,D] | [D,D][D,D][D,D] [D,A,]3 | [A,,A,][A,,A,]A,, A,,A,,A,, | D,6 | %9
 [D,D][D,D][D,D][K:treble] [A,EG]3 | [A,CG][A,CE][A,CG][K:bass] [D,D]2 [D,C] | %11
 [A,,A,][A,,A,][A,,A,] [A,,A,][A,,A,][A,,A,] | [A,,A,][B,,A,][C,A,] [D,A,D]3 | %13
 [D,A,D][E,A,C][F,A,D][K:treble] [G,DG]3 | [G,DG][G,B,G][G,DG][K:bass] [D,D]2 [D,D] | %15
 [D,D][D,D][D,A,] D,A,,A,, |[M:5/8] D,-D,- D,3 |] %17

